X: 121
T:Do
R:Jig
C:Niall Vallely
Z:added by Alf 
M:6/8
L:1/8
Q:3/8=120
K:D
|:afd afd|cde Ace|gfe bag|fge d2f/g/|
afd afd|cde Ace|gfe bag|fge d3:|
:e2e Ace|f2f def|g2g efg|f2f def|
e2e Ace|f2f def|gfe bag|fge d3:|
